X: 1390
T: Don's Boat Tune
B: australian traditional tunes wiki
M:4/4
R: Set Tune
Q: 1/4=100
K:D
V:1 Accordion
"Accordion""D"F2A2AdFA|"G"B2c2d2Bd|"D"AdFA DADF|"A7"G2F2E4|!
"D"F2A2AdFA|"G"B2c2d2(3BdB|"D"AdFA"A7"E2G2|"D"F2D2D4:|!
|:"D"fgdf AdFF|"G"G2B2B2de|"D"f2df AdFF|"A7"g2E2E4|!
"D"f2df AdFF|"G"G2B2d2(3BdB|"D"AdFA "A7"F2GG|"D"F2D2D4:|
V:2 
"Fiddle"[F2A2][FA][FA][F2A2][FA][FA]|G2[GB][GB][G4B4]|[F2A2][FA][FA][F2A2][FA][FA]|E2[EA][EA] EFGE|!
[F2A2][FA][FA][F2A2][FA][FA]|G2A2[G2B2][GB][GB]|[F2A2][FA][FA] cAEG|[F2A2][FA][FA] DFAd:|!
|:[F2A2][FA][FA][F2A2][FA][FA]|G2[GB][GB][G4B4]|[F2A2][FA][FA][F2A2][FA][FA]|E2[EA][EA]EAce|
[F2A2][FA][FA][F2A2][FA][FA]|G2A2[G2B2][GB][GB]|[F2A2][FA][FA] cAEG|[F2A2][FA][FA][F4A4]:|
V:3 Bass
"Bass"D,2z2B,,2F,2|G,2z2D,2B,,2|D,2z2C,2B,,2|A,,2z2E,2C,2|!
D,2z2A,,2F,2|G,2z2D,2C,2|D,2z2A,,2z2|D,2z2A,,2D,2:|!
|:D,2z2A,,2F,2|G,2z2D,2B,,2|D,2z2A,,2F,2|A,,2z2E,2C,2|
D,2z2A,,2F,2|G,2z2D,2B,,2|D,2z2A,,2F,2|D,2z2D,2A,,2:|
% abcbook-tune_id 6342d53a4581eabbfd0880bb


% abcbook-boost 0
% abcbook-tablature 
% abcbook-transpose 
% abcbook-lastupdated 1665324362707
% abcbook-soundfonts 
% abcbook-repeats 1
% NFF Book 2010

